!!! OTL: Literature41
!!! Chapter: 5
!!! Section: I
!!! Page: 353
!!! Mode: 
!!! Encoder: DJB
**kern
*staff1
*I"Piano
=1-
*clefG2
*k[b-e-]
*B-:
*M3/4
4f/
4.f/
8b-\
=2
8b-/L
8a/J
2a/
=3
4e-/
4.e-/
8g/
=4
8g/L
8f/J
2f/
=5
4d/
4g/
4f/
=6
8f/L
8en/J
2e-/
=7
4e-/
4d/
4c/
=8
4g/
2f/
=9
4f/
4.f/
8b-\
=10
8b-/L
8a/J
2a/
=11
!!linebreak:original
4e-/
4.e-/
8g/
=12
8g/L
8f/J
2f/
=13
4d/
4g/
4f/
=14
8f/L
8en/J
2e-/
=15
4e-/
4d/
4c/
=16
4g/
2f/
=17
4dd\
4cc\
4b-\
=18
8a/L
8g/J
2cc\
=19
4cc\
4b-\
4g/
=20
8en/L
8f/J
2b-\
=21
!!linebreak:original
8dd\L
8b-\J
8b-/L
8f/J
8f/L
8d/J
=22
8e-/L
8cc/J
2cc\
=23
4cc\
4.g/
8a/
=24
4cc\
2b-\
=25
4dd\
4cc\
4b-\
=26
8a/L
8g/J
2cc\
=27
4cc\
4b-\
4g/
=28
8en/L
8f/J
2b-\
=29
8dd\L
8b-\J
8b-/L
8f/J
8f/L
8d/J
=30
8e-/L
8cc/J
2cc\
=31
!!linebreak:original
4cc\
4.dd\
8cc\
=32
8cc\L
8b-\J
2b-\
==
*-
